X:3913
L:1/8
Q:1/8=130
M:2/2
K:G
"^set dance" D2 | GABG AGED | c3 A dBAB | GABG AGED | A2 AB A2 GE |"^5" GABG AGED | c3 A dBAB | 
 GABG AGED | G2 GA G2 :| D2 |"^9" GABc d2 de | =f2 ed e2 d2 | gfge d2 dB | GABG A3 B | 
"^13" c2 ec B2 dB | A2 AB A2 G2 | g2 ga gedB | A2 AB A2 GE |"^17" GABG AGED | cBce dBAB | 
 GABG AGED | EGGA G2 :|

